symbolic/64x64/apps/sonobus.svg

<svg xmlns="http://www.w3.org/2000/svg" width="64" height="64" version="1.1">
 <path style="opacity:0.2" d="m 53.546876,11.453125 -12,11.999999 A 22,22 0 0 1 48,39 22,22 0 0 1 46.34375,47.335938 22,22 0 0 0 60,27 22,22 0 0 0 53.546876,11.453125 Z"/>
 <path style="opacity:0.2" d="m 22.453124,42.546876 -11.999999,12 A 22,22 0 0 0 26,61 22,22 0 0 0 46.34375,47.335938 22,22 0 0 1 38,49 22,22 0 0 1 22.453124,42.546876 Z"/>
 <path style="fill:#d348d3" d="m 22.453124,41.546876 -11.999999,12 A 22,22 0 0 0 26,60 22,22 0 0 0 46.34375,46.335938 22,22 0 0 1 38,48 22,22 0 0 1 22.453124,41.546876 Z"/>
 <path style="fill:#31a9fa" d="m 53.546876,10.453125 -12,11.999999 A 22,22 0 0 1 48,38 22,22 0 0 1 46.34375,46.335938 22,22 0 0 0 60,26 22,22 0 0 0 53.546876,10.453125 Z"/>
 <path style="opacity:0.2" d="M 17.65625,18.664062 A 22,22 0 0 0 4,39 22,22 0 0 0 10.453125,54.546876 l 11.999999,-12 A 22,22 0 0 1 16,27 22,22 0 0 1 17.65625,18.664062 Z"/>
 <path style="fill:#31a9fa" d="M 17.65625,17.664062 A 22,22 0 0 0 4,38 22,22 0 0 0 10.453125,53.546876 l 11.999999,-12 A 22,22 0 0 1 16,26 22,22 0 0 1 17.65625,17.664062 Z"/>
 <path style="opacity:0.2" d="M 38,5 A 22,22 0 0 0 17.65625,18.664062 22,22 0 0 1 26,17 22,22 0 0 1 41.546876,23.453124 l 12,-11.999999 A 22,22 0 0 0 38,5 Z"/>
 <path style="fill:#d348d3" d="M 38,4 A 22,22 0 0 0 17.65625,17.664062 22,22 0 0 1 26,16 22,22 0 0 1 41.546876,22.453124 l 12,-11.999999 A 22,22 0 0 0 38,4 Z"/>
 <path style="opacity:0.2;fill:#ffffff" d="M 38 4 A 22 22 0 0 0 17.65625 17.664062 A 22 22 0 0 1 18.203125 17.46875 A 22 22 0 0 1 38 5 A 22 22 0 0 1 53.546875 11.453125 A 22 22 0 0 1 59.976562 26.544922 A 22 22 0 0 0 60 26 A 22 22 0 0 0 53.546875 10.453125 A 22 22 0 0 0 38 4 z M 17.65625 17.664062 A 22 22 0 0 0 4 38 A 22 22 0 0 0 4.0234375 38.443359 A 22 22 0 0 1 17.242188 18.859375 A 22 22 0 0 1 17.65625 17.664062 z M 16.046875 27.082031 A 22 22 0 0 0 16 28 A 22 22 0 0 0 16.025391 28.501953 A 22 22 0 0 1 16.046875 28.082031 A 22 22 0 0 0 22.453125 42.546875 A 22 22 0 0 0 38 49 A 22 22 0 0 0 45.763672 47.541016 A 22 22 0 0 0 46.34375 46.335938 A 22 22 0 0 1 38 48 A 22 22 0 0 1 22.453125 41.546875 A 22 22 0 0 1 16.046875 27.082031 z M 46.34375 46.335938 A 22 22 0 0 0 46.78125 46.130859 A 22 22 0 0 0 47.953125 39.917969 A 22 22 0 0 1 47.978516 40.509766 A 22 22 0 0 0 48 40 A 22 22 0 0 0 47.953125 38.917969 A 22 22 0 0 1 46.34375 46.335938 z"/>
</svg>

<svg xmlns="http://www.w3.org/2000/svg" width="64" height="64"><path style="opacity:.2" d="m53.547 11.453-12 12A22 22 0 0 1 48 39a22 22 0 0 1-1.656 8.336A22 22 0 0 0 60 27a22 22 0 0 0-6.453-15.547zM22.453 42.547l-12 12A22 22 0 0 0 26 61a22 22 0 0 0 20.344-13.664A22 22 0 0 1 38 49a22 22 0 0 1-15.547-6.453z"/><path style="fill:#d348d3" d="m22.453 41.547-12 12A22 22 0 0 0 26 60a22 22 0 0 0 20.344-13.664A22 22 0 0 1 38 48a22 22 0 0 1-15.547-6.453z"/><path style="fill:#31a9fa" d="m53.547 10.453-12 12A22 22 0 0 1 48 38a22 22 0 0 1-1.656 8.336A22 22 0 0 0 60 26a22 22 0 0 0-6.453-15.547z"/><path style="opacity:.2" d="M17.656 18.664A22 22 0 0 0 4 39a22 22 0 0 0 6.453 15.547l12-12A22 22 0 0 1 16 27a22 22 0 0 1 1.656-8.336z"/><path style="fill:#31a9fa" d="M17.656 17.664A22 22 0 0 0 4 38a22 22 0 0 0 6.453 15.547l12-12A22 22 0 0 1 16 26a22 22 0 0 1 1.656-8.336z"/><path style="opacity:.2" d="M38 5a22 22 0 0 0-20.344 13.664A22 22 0 0 1 26 17a22 22 0 0 1 15.547 6.453l12-12A22 22 0 0 0 38 5z"/><path style="fill:#d348d3" d="M38 4a22 22 0 0 0-20.344 13.664A22 22 0 0 1 26 16a22 22 0 0 1 15.547 6.453l12-12A22 22 0 0 0 38 4z"/><path style="opacity:.2;fill:#fff" d="M38 4a22 22 0 0 0-20.344 13.664 22 22 0 0 1 .547-.195A22 22 0 0 1 38 5a22 22 0 0 1 15.547 6.453 22 22 0 0 1 6.43 15.092A22 22 0 0 0 60 26a22 22 0 0 0-6.453-15.547A22 22 0 0 0 38 4zM17.656 17.664A22 22 0 0 0 4 38a22 22 0 0 0 .023.443 22 22 0 0 1 13.22-19.584 22 22 0 0 1 .413-1.195zm-1.61 9.418A22 22 0 0 0 16 28a22 22 0 0 0 .025.502 22 22 0 0 1 .022-.42 22 22 0 0 0 6.406 14.465A22 22 0 0 0 38 49a22 22 0 0 0 7.764-1.459 22 22 0 0 0 .58-1.205A22 22 0 0 1 38 48a22 22 0 0 1-15.547-6.453 22 22 0 0 1-6.406-14.465zm30.298 19.254a22 22 0 0 0 .437-.205 22 22 0 0 0 1.172-6.213 22 22 0 0 1 .026.592A22 22 0 0 0 48 40a22 22 0 0 0-.047-1.082 22 22 0 0 1-1.61 7.418z"/></svg>
